X:1
T:Rodmell, CM
T:Rodmell, CM
T:Traditional English Tune
T:Public Domain Courtesy of the Cyber Hymnal™
C:Traditional English Tune
Z:Public Domain
Z:Courtesy of the Cyber Hymnal™
%%score ( 1 2 ) ( 3 4 )
L:1/8
Q:1/4=113
M:none
K:G
V:1 treble 
V:2 treble 
V:3 bass 
V:4 bass 
V:1
 D2 | G3 z F [CE]2 [EA]2 | GF (EF) D2 [CD]2 | [B,G]2 ([DB][Gd]) [Gc]2 [GB]2 | A4 F2 D2 | %5
 [DG]2 (Bd) [Gc]2 (BA) | (BA) (GF) [CE]2 (GB) | A3 z G (FD) (EF) | [DG]6 |] %9
V:2
 D2 | D2 D2 x5 | D2 A,2 D2 x2 | x8 | G6 D2 | x2 G2 x F2 x | G2 D2 x B,2 x | E2 (E2 D2) D2 x | x6 |] %9
V:3
 [G,,B,]2 | [B,,G,]2 [G,,B,]2 [C,C]2 [A,,C]2 x | [D,A,]2 [C,F,]2 [B,,G,]2 [A,,F,]2 | %3
 [G,,G,]2 (G,B,) [E,C]2 [G,D]2 | [D,D]6 [C,F,]2 | [B,,G,]2 (G,B,) [A,C]2 [D,D]2 | %6
 [G,D]2 [B,,G,]2 [C,G,]2 [E,G,]2 | C3 z B, (A,F,) (G,A,) | [G,,B,]6 |] %9
V:4
 x2 | x9 | x8 | x2 G,2 x4 | x8 | x2 G,2 x4 | x8 | A,,2 (C,2 D,2) D,2 x | x6 |] %9

